X:1
T:Title
%%score { ( 1 4 ) | ( 2 3 ) }
L:1/8
M:3/4
K:Eb
V:1 treble nm="Grand Piano"
V:4 treble 
V:2 bass 
V:3 bass 
V:1
 z2 z[Q:1/4=69] G _G=G | [DB]3 A [EG]F | [EG]3 G [E_G]=G | [=Ec]3 B [FA]G | [FA]3 c [A=B]c | %5
 [Af]3 e [Fd]c | [GB]3 B [_GB]c | [Fd]3 F G>F |[M:3/8] [DB]3 |[M:6/8][Q:1/4=84] B=A_A z EE | %10
 .G3 E3 | z3 A3 | .A3 F3 | z3 B3 | .c3 e3 | .d3 f3 | c3 d3 | z3 G3 | .G3 E3 | z3 A3 | .A3 F3 | %21
 z3 B3 | .=A3 c3 | .d3 =G3 |[M:7/16] A-<A z[K:bass] [G,B,E]/- | %25
 [G,B,E]/-[G,B,E]/-[G,B,E]-<[G,B,E] z/ |] %26
V:2
 z2 z E EE | B,,G, z F z D | E,,B,, z E z E | [C,,C,]G,[K:treble] z G[K:bass] z =E | %4
 F,,C, z A z A | B,,F, z G z A | z2[K:treble] E2[K:bass] E,2 | [F,,F,]F, D[B,D] E>E | %8
[M:3/8] D,F,B, |[M:6/8][K:treble] [B,D][CE][DF][K:bass] z [G,B,][G,B,] | z G,[G,,G,] z G,G, | %11
 .[C,G,C]3 z CC | z =B,[B,F] z _B,B, | B,,3 z EE | .[F,,F,]2 [DA] z EE | %15
 z[K:treble] E[EG][K:bass] z[K:treble] FF | z FF[K:bass] z[K:treble] [DF][DF] | %17
 [B,,,B,,][C,,C,][D,,D,] z [G,B,][G,B,] | z G,G,, z G,G, | .[C,G,C]3 z CC | z =B,[B,F] z _B,B, | %21
 B,,3 z EE | z[K:treble] E[EG][K:bass] z EE | z E[E_G] z [G,B,][G,B,] | %24
[M:7/16] [B,,F,]-<[B,,F,] z/ z | z7/2 |] %26
V:3
 x6 | z2 B,2 B,,2 | z2 E,2 E,2 | z2[K:treble] C2[K:bass] C,2 | z2 F,2 F,,2 | z2 B,2 B,,2 | %6
 [E,,E,]B,[K:treble] z G[K:bass] z _G | z2 z2 [F,=A,]2 |[M:3/8] x3 | %9
[M:6/8][K:treble] z3[K:bass] [E,,E,]3 | .[D,,D,]3 [C,,C,]3 | z3 [F,,F,]3 | [E,,E,]3 [D,,D,]3 | %13
 z3 [G,,G,]3 | z [B,,B,]2 [C,C]3 | [C,C]3[K:treble][K:bass] [=A,,=A,]3[K:treble] | %16
 F,3[K:bass] [B,,B,]3[K:treble] | z3 [E,,E,]3 | .[D,,D,]3 [C,,B,,]3 | z3 [F,,F,]3 | %20
 [E,,E,]3 [D,,D,]3 | z3 [G,,G,]3 | [E,,E,]3[K:treble][K:bass] [A,,A,]3 | [=A,,=A,]3 B,,3 | %24
[M:7/16] z B,B,,E,,/- | E,,3/2E,,,3/2 z/ |] %26
V:4
 x6 | x6 | x6 | x6 | x6 | x6 | x6 | x6 |[M:3/8] B, z z |[M:6/8] z3 G3 | z =B,[B,G] z CC | %11
 EFG z FF | z FA z DD | [B,DF]GA z GG | z [DA]B z GG | z Ge z cc | z =AA z _AA | %17
 [DFAd][CFAc][B,FA] z EE | z =B,[G,B,G] z _B,B, | EFG z FF | z FA z DD | [B,DF]GA z GG | %22
 z GB z _AA | z _Ge z EE |[M:7/16] D z [A,B,DF][K:bass]E,/- | E,3/2E,,3/2 z/ |] %26

